icons/svg/content-cut.svg

<svg xmlns="http://www.w3.org/2000/svg" version="1.1" baseProfile="full" width="24" height="24" viewBox="0 0 24.00 24.00" xml:space="preserve"><path fill="#000" fill-opacity="1" stroke-linejoin="round" d="M19 3l-6 6 2 2 7-7V3m-10 9.5c-.28 0-.5-.22-.5-.5s.22-.5.5-.5.5.22.5.5-.22.5-.5.5zM6 20c-1.1 0-2-.89-2-2 0-1.11.9-2 2-2s2 .89 2 2c0 1.11-.9 2-2 2zM6 8c-1.1 0-2-.89-2-2 0-1.11.9-2 2-2s2 .89 2 2c0 1.11-.9 2-2 2zm3.64-.36c.23-.5.36-1.05.36-1.64 0-2.21-1.79-4-4-4S2 3.79 2 6s1.79 4 4 4c.59 0 1.14-.13 1.64-.36L10 12l-2.36 2.36C7.14 14.13 6.59 14 6 14c-2.21 0-4 1.79-4 4s1.79 4 4 4 4-1.79 4-4c0-.59-.13-1.14-.36-1.64L12 14l7 7h3v-1L9.64 7.64z"/></svg>

﻿<?xml version="1.0" encoding="utf-8"?>
<!DOCTYPE svg PUBLIC "-//W3C//DTD SVG 1.1//EN" "http://www.w3.org/Graphics/SVG/1.1/DTD/svg11.dtd">
<svg xmlns="http://www.w3.org/2000/svg" xmlns:xlink="http://www.w3.org/1999/xlink" version="1.1" baseProfile="full" width="24" height="24" viewBox="0 0 24.00 24.00" enable-background="new 0 0 24.00 24.00" xml:space="preserve">
	<path fill="#000000" fill-opacity="1" stroke-linejoin="round" d="M 19,3L 13,9L 15,11L 22,4L 22,3M 12,12.5C 11.72,12.5 11.5,12.28 11.5,12C 11.5,11.72 11.72,11.5 12,11.5C 12.28,11.5 12.5,11.72 12.5,12C 12.5,12.28 12.28,12.5 12,12.5 Z M 6,20C 4.9,20 4,19.11 4,18C 4,16.89 4.9,16 6,16C 7.1,16 8,16.89 8,18C 8,19.11 7.1,20 6,20 Z M 6,8C 4.9,8 4,7.11 4,6C 4,4.89 4.9,4 6,4C 7.1,4 8,4.89 8,6C 8,7.11 7.1,8 6,8 Z M 9.64,7.64C 9.87,7.14 10,6.59 10,6C 10,3.79 8.21,2 6,2C 3.79,2 2,3.79 2,6C 2,8.21 3.79,10 6,10C 6.59,10 7.14,9.87 7.64,9.64L 10,12L 7.64,14.36C 7.14,14.13 6.59,14 6,14C 3.79,14 2,15.79 2,18C 2,20.21 3.79,22 6,22C 8.21,22 10,20.21 10,18C 10,17.41 9.87,16.86 9.64,16.36L 12,14L 19,21L 22,21L 22,20L 9.64,7.64 Z "/>
</svg>
